X:221
T:Murray River Jig
R:Jig
C:G. Townsend
M:6/8
L:1/8
K:A
AB |\
"A"  c2c cBA |      E3- EAB |  cBc dcB  | "D"  F3-     FBc |
"Bm" d2d dcB | "E7" g2g g2f |1 efe e^de | "A"  fed "E7" c :|2 efe dcB | "A" A3 A ||
|: ed |\
"A" cAA "(D7/F#)" AB=c | "G" B=GG G2F | "A" EAA     AGA |  "Bm" Bee "E7"e2d |
"A" cAA   AB"(/F#)"=c  | "G" B=GG G2F | "A" EAA "E7"GAB |1 "A"  cAA A  :|2 "A" A3-A2 ||
